X:306
T: ES RITT EIN JAEGER WOHLGEMUTH
N: E1455A
O: Europa, Mitteleuropa, Deutschland, Schlesien
R: Staende -, Jaeger - Lied, Liebe
M: 6/8
L: 1/16
K: G
D2 | G4B2B2A2G2 | A4F2D4
A2 | A4d2A2G2F2 | G2F2E2D4z2 |
G4D2E2E2D2 | GGG2D2E2E2D
D | D4G2B2A2G2 | A4A2G4

@@@ Tune index: 4990
